src/assets/CircleSVGs/steps.svg

<svg viewBox="-250 0 1000 1000" xmlns="http://www.w3.org/2000/svg" xmlns:xlink="http://www.w3.org/1999/xlink"><linearGradient id="a" gradientUnits="userSpaceOnUse" x1="508.01" x2="228.34" y1="40.95" y2="1263.43"><stop offset="0" stop-color="#3bc2fb"/><stop offset=".99" stop-color="#e792fb"/></linearGradient><linearGradient id="b" x1="501.52" x2="221.85" xlink:href="#a" y1="39.46" y2="1261.94"/><linearGradient id="c" x1="438.93" x2="159.26" xlink:href="#a" y1="25.15" y2="1247.63"/><linearGradient id="d" x1="432.45" x2="152.78" xlink:href="#a" y1="23.66" y2="1246.14"/><linearGradient id="e" x1="183.08" x2="-96.59" xlink:href="#a" y1="-33.39" y2="1189.1"/><linearGradient id="f" x1="256.58" x2="-23.1" xlink:href="#a" y1="-16.57" y2="1205.91"/><linearGradient id="g" x1="305.87" x2="26.2" xlink:href="#a" y1="-5.3" y2="1217.18"/><linearGradient id="h" x1="379.36" x2="99.69" xlink:href="#a" y1="11.52" y2="1234"/><path d="m281.45 846.7c27.81 9.52 52.36 15.59 87.64 26.43-13.56 171.23-175.48 103.23-87.64-26.43z" fill="url(#a)"/><path d="m426 689.4c-1.8-51.4-10.86-118.86-83-108.3-33.82 8.83-58.8 46-70.55 110-6.46 35.23-2.7 84.68 4.91 114.32 6.95 20.89 4.59 19.6 12.06 23.57 28.91 6.52 57.54 13.73 86.69 21.08 29.62-20.87 53.95-131.9 49.89-160.67z" fill="url(#b)"/><path d="m341.45 266.7c27.81 9.52 52.36 15.59 87.64 26.43-13.56 171.23-175.48 103.23-87.64-26.43z" fill="url(#c)"/><path d="m486 109.4c-1.8-51.4-10.86-118.86-83-108.3-33.82 8.83-58.8 46-70.55 110-6.46 35.23-2.7 84.68 4.91 114.32 6.95 20.89 4.59 19.6 12.06 23.57 28.91 6.52 57.54 13.73 86.69 21.08 29.62-20.87 53.95-131.9 49.89-160.67z" fill="url(#d)"/><path d="m160.41 461.45c7.61-29.65 11.36-79.09 4.91-114.32-11.74-64.08-36.73-101.22-70.55-110-72.14-10.57-81.19 56.88-83 108.3-4 28.76 20.3 139.8 49.91 160.71 29.15-7.36 57.77-14.56 86.7-21.08 7.44-4 5.08-2.72 12.03-23.61z" fill="url(#e)"/><path d="m68.69 529.12c13.54 171.23 175.47 103.23 87.63-26.43-27.81 9.53-52.32 15.59-87.63 26.43z" fill="url(#f)"/><path d="m149.1 1075.69c7.6-29.64 11.36-79.09 4.91-114.32-11.75-64.07-36.73-101.21-70.55-110-72.14-10.57-81.2 56.87-83 108.29-4 28.77 20.29 139.8 49.91 160.71 29.15-7.35 57.77-14.56 86.7-21.08 7.44-3.99 5.07-2.71 12.03-23.6z" fill="url(#g)"/><path d="m57.37 1143.36c13.55 171.24 175.47 103.23 87.63-26.42-27.8 9.52-52.35 15.58-87.63 26.42z" fill="url(#h)"/></svg>

<svg xmlns="http://www.w3.org/2000/svg" xmlns:xlink="http://www.w3.org/1999/xlink" viewBox="-250 0 1000 1000"><defs><style>.cls-1{fill:url(#linear-gradient);}.cls-2{fill:url(#linear-gradient-2);}.cls-3{fill:url(#linear-gradient-3);}.cls-4{fill:url(#linear-gradient-4);}.cls-5{fill:url(#linear-gradient-5);}.cls-6{fill:url(#linear-gradient-6);}.cls-7{fill:url(#linear-gradient-7);}.cls-8{fill:url(#linear-gradient-8);}</style><linearGradient id="linear-gradient" x1="508.01" y1="40.95" x2="228.34" y2="1263.43" gradientUnits="userSpaceOnUse"><stop offset="0" stop-color="#3bc2fb"/><stop offset="0.99" stop-color="#e792fb"/></linearGradient><linearGradient id="linear-gradient-2" x1="501.52" y1="39.46" x2="221.85" y2="1261.94" xlink:href="#linear-gradient"/><linearGradient id="linear-gradient-3" x1="438.93" y1="25.15" x2="159.26" y2="1247.63" xlink:href="#linear-gradient"/><linearGradient id="linear-gradient-4" x1="432.45" y1="23.66" x2="152.78" y2="1246.14" xlink:href="#linear-gradient"/><linearGradient id="linear-gradient-5" x1="183.08" y1="-33.39" x2="-96.59" y2="1189.1" xlink:href="#linear-gradient"/><linearGradient id="linear-gradient-6" x1="256.58" y1="-16.57" x2="-23.1" y2="1205.91" xlink:href="#linear-gradient"/><linearGradient id="linear-gradient-7" x1="305.87" y1="-5.3" x2="26.2" y2="1217.18" xlink:href="#linear-gradient"/><linearGradient id="linear-gradient-8" x1="379.36" y1="11.52" x2="99.69" y2="1234" xlink:href="#linear-gradient"/></defs><title>steps</title><g id="Layer_2" data-name="Layer 2"><g id="Layer_2-2" data-name="Layer 2"><path class="cls-1" d="M281.45,846.7c27.81,9.52,52.36,15.59,87.64,26.43C355.53,1044.36,193.61,976.36,281.45,846.7Z"/><path class="cls-2" d="M426,689.4C424.2,638,415.14,570.54,343,581.1c-33.82,8.83-58.8,46-70.55,110-6.46,35.23-2.7,84.68,4.91,114.32,6.95,20.89,4.59,19.6,12.06,23.57,28.91,6.52,57.54,13.73,86.69,21.08C405.73,829.2,430.06,718.17,426,689.4Z"/><path class="cls-3" d="M341.45,266.7c27.81,9.52,52.36,15.59,87.64,26.43C415.53,464.36,253.61,396.36,341.45,266.7Z"/><path class="cls-4" d="M486,109.4C484.2,58,475.14-9.46,403,1.1c-33.82,8.83-58.8,46-70.55,110-6.46,35.23-2.7,84.68,4.91,114.32,6.95,20.89,4.59,19.6,12.06,23.57,28.91,6.52,57.54,13.73,86.69,21.08C465.73,249.2,490.06,138.17,486,109.4Z"/><path class="cls-5" d="M160.41,461.45c7.61-29.65,11.36-79.09,4.91-114.32-11.74-64.08-36.73-101.22-70.55-110-72.14-10.57-81.19,56.88-83,108.3-4,28.76,20.3,139.8,49.91,160.71,29.15-7.36,57.77-14.56,86.7-21.08C155.82,481.06,153.46,482.34,160.41,461.45Z"/><path class="cls-6" d="M68.69,529.12c13.54,171.23,175.47,103.23,87.63-26.43C128.51,512.22,104,518.28,68.69,529.12Z"/><path class="cls-7" d="M149.1,1075.69c7.6-29.64,11.36-79.09,4.91-114.32-11.75-64.07-36.73-101.21-70.55-110-72.14-10.57-81.2,56.87-83,108.29-4,28.77,20.29,139.8,49.91,160.71,29.15-7.35,57.77-14.56,86.7-21.08C144.51,1095.3,142.14,1096.58,149.1,1075.69Z"/><path class="cls-8" d="M57.37,1143.36c13.55,171.24,175.47,103.23,87.63-26.42C117.2,1126.46,92.65,1132.52,57.37,1143.36Z"/></g></g></svg>
